X:36
T:Blue Bonnets over the Border. CAM2.[19]
B:Anon MS#2, early 19thC, Northumbria, Cocks Coll.
Z:Village Music Project 2016 Simon Wilson.
M:6/8
L:1/8
Q:3/8=100
K:C
c3c3|ced cAG|cAAA2A|agf edc|c>dcc2c|ced cAG|fga
fed|cde{e}d2c||ceg gec|agf edc|ceg abc'|c>dc cAG|
ceg gec|age edc|fga gc'c|cde{d}d2c|]

